X: 21
T: Pollonesse #21
M: 3/4
L: 1/16
K: Dm
Q:120
d2d2 e2ge f4|f2f2 gfef e2A2|d2d2 e2ge f4|e2dc d4D4:|
f2a2 g2ab a4|f2a2 a2gf e2d2|f2a2 g2ab a4|f2a2 a2gf e2d2|
d2d2 e2ge f4|e2dc d4D4:|

